X: 4061
T: MISS McLEOD OF ROSSE
R: Reel.
%R: reel
B: James Kerr "Merry Melodies" v.4 p.09 #61
Z: 2016 John Chambers <jc:trillian.mit.edu>
M: C|
L: 1/8
K: D
uA,2 !segno!|\
D2 (3(FED) AGFE | Dddc defd |\
D2 (3(FED) ADFA | (3(Bcd) (AF) FEEF |\
D2 (3(FED) AGFE | Dddc defg |\
gfge fdcA | (3(Bcd) (AF) (FE) E2 |]
dcdB ADFB | ADFB ADFA |\
dcdB ADFA | (3(Bcd) (AF) FEEc |\
dCcD BDAD | BAFA Bcde |\
(3(fgf) (3(efe) dcBA | (3(GFE) (3(FED) B,DCE |]

%%sep 1 1 500
%%sep 1 1 500

